X:1
T:Title
%%score ( 1 2 ) { 3 | 4 }
L:1/8
Q:1/4=105
M:6/8
K:Ab
V:1 treble nm="Grand Piano, Soprano"
V:2 treble 
V:3 bass nm="Choir Pad, Praise His Name Forever"
V:4 bass 
V:1
 [Ec]2 [Ec] [DB][DA][DF] | [CE]2 [CE] [CA]3 | [EB]2 [EB] BA[EB] | [Ec]3 [EB]3 | %4
w: By~John~Millard~Harris * * * *||||
 [Ee]2 [Ee] [Ec][EB][EA] | [FB]2 [FA] [DF]3 | [CE]2 [CE] [DG][CA][Ec] | [EB]3 [EA]3 | %8
w: ||||
 [Ae]2 [Ae] [Ae]2 [Ac] | [GB][FA][GB] [Ac]2 [Ae] | [Ae]>[Ed][Ec] [=Dc][DB][DA] | [DB]6 | %12
w: ||||
 [Ec]2 [Ec] [Ee]2 [Ec] | [EB]2 [EA] [FB][FA][DF] | [CE]2 [CA] [Ec]2 [DB] | [CA]6- | [CA]3 z3 |] %17
w: |||||
V:2
 x6 | x6 | z3 .E3 | x6 | x6 | x6 | x6 | x6 | x6 | x6 | x6 | x6 | x6 | x6 | x6 | x6 | x6 |] %17
V:3
 A,2 A, F,F,A, | A,2 A, E,3 | G,2 G,[K:treble] DCG, | A,3 D3 | C2 C[K:bass] A,G,A, | D2 D A,3 | %6
 A,2 A, B,A,A, | D3 C3 | C2 D C2 E | EEE E2 C | C>[K:bass]B,A, A,A,B, | G,6 | A,2 A, C2 A, | %13
 A,2 A, DDA, | A,2 A, A,2 A, | A,6- | A,3 z3 |] %17
V:4
 A,,2 A,, A,,A,,A,, | A,,2 A,, A,,3 | E,2 E, E,2 E, | z3 E,3 | A,2 A, A,,B,,C, | D,2 D, D,3 | %6
 E,2 E, E,2 E, | E,3 A,,3 | A,2 A, A,2 A, | E,E,E, A,2 A, | A,3/2.A,3/2 F,F,B,, | E,6 | %12
 A,,2 A,, A,,2 A,, | C,2 C, D,D,D, | E,2 E, E,2 E, | A,,6- | A,,3 z3 |] %17

